assets/images/afrikons/heart.svg

<svg viewBox="0 0 50 45.05" xmlns="http://www.w3.org/2000/svg"><path d="m50 15.39a16.61 16.61 0 0 0 -6.87-12.15l-1-.7a12.26 12.26 0 0 0 -15 .48l-1.58 1.33-2-1.65a12.3 12.3 0 0 0 -7.71-2.7 12.17 12.17 0 0 0 -7 2.17l-1.65 1.16a16.64 16.64 0 0 0 -2.31 25.47l13.63 13.62a8.93 8.93 0 0 0 12.66 0l13.95-13.94a16.68 16.68 0 0 0 4.88-13.09z"/></svg>

<svg xmlns="http://www.w3.org/2000/svg" viewBox="0 0 50 45.05"><title>heart</title><g id="Layer_2" data-name="Layer 2"><g id="Layer_1-2" data-name="Layer 1"><path d="M50,15.39A16.61,16.61,0,0,0,43.13,3.24l-1-.7a12.26,12.26,0,0,0-15,.48L25.55,4.35l-2-1.65A12.3,12.3,0,0,0,15.84,0a12.17,12.17,0,0,0-7,2.17L7.19,3.33A16.64,16.64,0,0,0,4.88,28.8L18.51,42.42a8.93,8.93,0,0,0,12.66,0L45.12,28.48A16.68,16.68,0,0,0,50,15.39Z"/></g></g></svg>
